X:158
%%pagewidth 8in
%%vocalfont Baskerville10Pro 13
T:The merry milkmaids in green
M:6/8
L:1/8
K:F
%%score 1 2
V:1 clef-treble
V:2 clef-bass octave=-1
V:1
F|F>GFC2c|A3-A2F|F>GF (CD)_E|
w:I mar-ried a wife of late,* The more's my  un-hap-*py,
V:2
z|[FA]3[FA]3|[Fc]3-[Fc]2z|[FA]3[A,F]3|
V:1
D3-D2B,|(B,>C)D/=E/F2D|G>FE/D/C2[Cc]&C3x3|A>Bc[B,EG]2F&C2C2x2|
w:fate;* I took* her for love, As fan-cy did me move, And not for her word-ly
V:2
[B,F]3-[B,F]3|G3[DA]3|E3-E2E,|F,2A,C3|
V:1
F3-F2||A|A>Bc (c>d)c|A>Bc (cB)A|B2cd2e|
w:state.* For qual-*ities rare,* Few with her com-pare,* Let me do her no
V:2
A3-A2&F3F,2||z|[Fc]3[FA]3|[Fc]3[FA]3|[Fd]3[FB]3|
V:1
f3-f2c|f2c (AB)c&x3F3|d2B (GA)B&F3E3|c2A (FG)A&E3F3|
w:wrong:* I must con-*fess, Her chief a-*miss is on-ly this,* As
V:2
[FA]2A,F2z|z2zF,3|B,3C3|A,3D,3|
V:1
[CG]2E (CD)E|[CF]2E (DE)F|[D(G]3ED)C|[C(F]G)[CA] [B,EG]2F|[A,F]3-[A,F]2||
w:some wives' is,* She can-not rule* her tongue,** She can-*not rule her tongue.*
V:2
E,3-E,F,G,|A,3B,3|B,3C3|A,2F, C3|F3F,2||

